X:111
T:Barton's Maggott. ThoH.111
Q:1/2=100
M:3/2
L:1/4
B:Thompson's Compleat Collection of 120 Favourite Hornpipes.
Z:Village Music Project, Simon Wilson 2016
O:England.
K:Eb
"_Only two flats in MS, but the A's are shown as flat"EC2DEF|Gc2de2|dB2_AGF|G2TF2E2|
EC2DEF|Gc2de2|defdef|gf/e/Bde2:|
|:gb2gfe|df2edc|Gc2B_AG|G2TF2E2|GB2GeG|
Ac2d/e/fd|egfedc|GcdT=Bc2:|

